src/assets/outline/Nexo.svg

<svg width="24" height="24" viewBox="0 0 24 24"  xmlns="http://www.w3.org/2000/svg">
<path d="M17 21.7506C16.87 21.7506 16.73 21.7106 16.61 21.6406L6.61 15.6406C6.38 15.5006 6.25 15.2606 6.25 15.0006V9.00063C6.25 8.73063 6.4 8.48064 6.63 8.35064C6.87 8.22064 7.15 8.22063 7.39 8.36063L16.25 13.6806V9.43062L11.61 6.65062C11.38 6.51062 11.25 6.27062 11.25 6.01062C11.25 5.75062 11.39 5.50063 11.61 5.37063L16.61 2.37063C16.85 2.23063 17.14 2.23063 17.38 2.37063L22.38 5.37063C22.61 5.51063 22.74 5.75062 22.74 6.01062V18.0106C22.74 18.2706 22.6 18.5206 22.38 18.6506L17.38 21.6506C17.27 21.7106 17.13 21.7506 17 21.7506ZM7.75 14.5806L17 20.1306L21.25 17.5806V6.43062L17 3.88063L13.46 6.01062L17.39 8.37063C17.62 8.51062 17.75 8.75062 17.75 9.01062V15.0106C17.75 15.2806 17.6 15.5306 17.37 15.6606C17.14 15.7906 16.85 15.7906 16.61 15.6506L7.75 10.3306V14.5806Z" />
<path d="M7 21.7509C6.87 21.7509 6.73 21.7109 6.61 21.6409L1.61 18.6409C1.38 18.5009 1.25 18.2609 1.25 18.0009V6.00086C1.25 5.74086 1.39 5.49086 1.61 5.36086L6.61 2.36086C6.85 2.22086 7.14001 2.22086 7.38 2.36086L12.38 5.36086C12.74 5.57086 12.85 6.03086 12.64 6.39086C12.43 6.75086 11.97 6.86085 11.61 6.65085L7 3.88086L2.75 6.43085V17.5809L6.98 20.1209L11.29 17.2509C11.63 17.0209 12.1 17.1109 12.33 17.4609C12.56 17.8109 12.47 18.2709 12.12 18.5009L7.42 21.6309C7.29 21.7109 7.15 21.7509 7 21.7509Z" />
</svg>

<?xml version="1.0" encoding="UTF-8"?>
<svg width="24" height="24" viewBox="0 0 24 24" xmlns="http://www.w3.org/2000/svg">
 <path d="m17 21.751c-0.13 0-0.27-0.04-0.39-0.11l-10-6c-0.23-0.14-0.36-0.38-0.36-0.64v-6c0-0.27 0.15-0.51999 0.38-0.64999 0.24-0.13 0.52-0.13001 0.76 0.00999l8.86 5.32v-4.25l-4.64-2.78c-0.23-0.14-0.36-0.38-0.36-0.64s0.14-0.50999 0.36-0.63999l5-3c0.24-0.14 0.53-0.14 0.77 0l5 3c0.23 0.14 0.36 0.37999 0.36 0.63999v12c0 0.26-0.14 0.51-0.36 0.64l-5 3c-0.11 0.06-0.25 0.1-0.38 0.1zm-9.25-7.17 9.25 5.55 4.25-2.55v-11.15l-4.25-2.55-3.54 2.13 3.93 2.36c0.23 0.13999 0.36 0.37999 0.36 0.63999v6c0 0.27-0.15 0.52-0.38 0.65s-0.52 0.13-0.76-0.01l-8.86-5.32v4.25z"/>
 <path d="m7 21.751c-0.13 0-0.27-0.04-0.39-0.11l-5-3c-0.23-0.14-0.36-0.38-0.36-0.64v-12c0-0.26 0.14-0.51 0.36-0.64l5-3c0.24-0.14 0.53001-0.14 0.77 0l5 3c0.36 0.21 0.47 0.67 0.26 1.03s-0.67 0.46999-1.03 0.25999l-4.61-2.77-4.25 2.55v11.15l4.23 2.54 4.31-2.87c0.34-0.23 0.81-0.14 1.04 0.21s0.14 0.81-0.21 1.04l-4.7 3.13c-0.13 0.08-0.27 0.12-0.42 0.12z"/>
</svg>
